X: 10741
Q: "Allegro"
M: C
L: 1/8
K: F
(cB) | A2 F2 d2 c2 | B4 z2 B2 | (B2 G2) (c2 B2) |
(=B2 c2) (_B2 G2) | (E2 F2) (G2 A2) | B2 G2 c3 c | f2 ag agag | f2 A2 B2 c2 |
d2 d a baba | g2 G A B2 B2 | A2 z2 (fefc) | (AF) (Ac) (fe) f c |
(AF) (Ac) f2 zc | (AF) (Ac) (fc) (AF) | c2 c2 z2 f2 |
e2 c2 c2 f2 | e2 c2 c2 f2 | G2 G2 =B2 B2 |
c2 z2 c2 zc | f3 c g3 c | a4 z2 c2 | f3 c g3 c |
a4 z2 c2 | e2 e2 e2 e2 | f4 z2 c2 | G2 A2 B2 A2 |
f4 (fe) f c | (AF) (Ac) f2 zc | d3 d c2 e2 | f4 A4 |



